X:1
T:Girls of the Shamrock Shore
M:2/4
L:1/4
K:G
 d| e e/2d/2| B A/2G/2| A B| D B,/2D/2| EA/2-G/2| E E| E2| zE/2-F/2|\
 G G| A B| d3/2 B/2| G A| B e|d/2-e/2f/2-d/2| e2-| e B/2d/2| ee/2-d/2|\
 BA/2-G/2| A B| D B,/2D/2| E A/2G/2| E E| E||
